X:1
T:O doulx amour
T:O doulx amour
T:Damianus Havericq (fl 1538-1556)
C:Damianus Havericq
C:(fl 1538-1556)
%%score [ 1 [ 2 3 ] 4 ]
L:1/8
Q:1/4=120
M:2/2
K:C
V:1 treble nm="Soprano" snm="S"
V:2 treble-8 nm="Tenor 1" snm="T 1"
V:3 treble-8 nm="Tenor 2" snm="T 2"
V:4 bass nm="Bass" snm="B"
V:1
 G8 | G4 F4 | E8- | E4 z2 A2 | A2 A2 A4- | A2 F2 G4 | E4 z2 A2 | A2 E2 A3 B | c2 d3 c c2- | %9
w: O|doulx a-|mour|_ O|gran- de jo-|* ys- san-|ce, O|gran- de jo- *|* ys- * san-|
 c2 B2 c3 B | A2 B3 A A2- |"^#" A2 G2 A4 | z2 A4 G2 | F4 E2 E2 | F2 D2 E4 | z2 A4 G2 | F4 EE G2- | %17
w: ||* * ce|quant ung|a- mant [quant|ung a- mant]|quant ung|a- mant de sa|
 G2 G2 D2 F2- | FE E4 D2 | EE G2 G2 D2- | DE F4 E2- | E2 D2 E2 CD | EFGA B2 A2- | A2 G2 A4- | %24
w: _ tres- schie- re|_ _ da- *|me, de sa tres schie-|* re da- *|||* * me|
 A4 z2 A2 | A2 A2 G2 F2 | E2 c2 c2 B2- | B2 A4 G2 | A4 G4 | E2 E2 E2 E2 | DCB,A, B,2 B2 | %31
w: _ par-|faic- te- ment l'ay-|mant, par- faic- te-|* ment l'ay-||mant de corps et|d'a- * * * * *|
 c2 G2 A4 | G2 G2 F2 E2- | E2 D2 E4- | E4 z2 A2 | A2 A2 B2 G2- | G2 c4 A2 | d3 c BA G2 | %38
w: |me, de corps et|_ d'a- me|_ de|jour et nuict peult|_ a- voir|jo- * * * ys-|
 c2 B4 A2- | A2 G2 A4 | z2 A2 A2 A2 | B2 G4 c2- | c2 A2 d3 c | BA G2 c2 B2- |"^#" B2 A4 G2 | A8 |] %46
w: san- * *|* * ce|de jour et|nuict peult a-|* voir jo- *|* * ys- san- *||ce.|
V:2
 d8 | e4 d4 | c2 BA B4 | z2 c2 c2 d2 | e2 f2 e2 f2- | fedc d4 | c3 d ec d2 | e4 z2 a2 | %8
w: O|doulx a-|mour _ _ _|O gran- de|jo- ys- san- *|||ce O|
 a2 d2 a2 f2 | g4 e3 d | e2 f4 d2 | e4 z2 e2- | e2 d2 c2 B2 | d4 c2 B2 | A3 A c2 B2 | c2 d2 e4 | %16
w: gran- de jo- ys-|san- * *||ce quant|_ ung a- mant,|quant ung a-|mant de sa tres|schie- re da-|
 A4 z2 e2- | e2 d3 c A2 | B4 z2 A2 | c6 B2 | G2 A2 B4 | A4 z4 | z2 d4 f2- | fe d2 c2 d2- | %24
w: me, de|_ sa tres schie-|re da-|||me,|de sa|_ tres schie- re da-|
"^#" d2 c2 d2 f2 | f2 f2 e2 d2 | c2 e2 e2 g2- | gfed e4 | c2 e2 d3 c | B4 A2 G2 | A4 e2 g2 | %31
w: * * me par-|faic- te- ment l'ay-|mant, par- faic- te-|* * * * ment,|l'ay- * * *||mant, par- faic-|
 f2 e4 d2 | e2 d2 c2 B2- |"^#" B2 A4 G2 | A2 e2 e2 e2 | f2 e2 g3 f | ed c4 d2 | dcBA G2 e2- | %38
w: te- ment l'ay-|||mant de jour et|nuict peult a- *|* * voir, peult|a- * * * voir jo-|
 e2 f4 d2 | e4 c2 e2 | e2 e2 f2 f2 | g3 f ed c2- | c2 d2 dcBA | G2 e4 f2- | f2 d2 e4 |"^#" c8 |] %46
w: * ys- *|san- ce, de|jour et nuict peult|a- * * * voir,|_ peult a- * * *|voir jo- ys-|* * san-|ce.|
V:3
 B8 | c4 A2 B2- |"^#" BA A4 G2 | A8 | z2 A2 A2 D2 | A2 A2 G4 | C2 c2 c2 A2 | z2 A2 A2 D2 | %8
w: O|doulx a- *||mour|O gran- de|jo- ys- san-|ce [O gran- de]|O gran- de|
 A2 B2 c4 | d4 c2 AB | cA d3 cBA | B4 A4 | z8 | z2 A4 G2 | F4 E2 e2- | e2 d2 c2 B2 | A2 d2 B2 c2- | %17
w: jo- ys- san|_ _ _ _||* ce||quant ung|a- mant de|_ sa tres schie-|re da- * *|
 c2 B4 A2- | A2 G2 A4 | z2 E2 G4- | G2 F2 D2 E2 | F4 E2 e2 | g6 f2 | d3 e f4 | e4 z2 d2 | %25
w: |* * me,|tres schie-|* re da- *|* me, de|sa tres|schie- re da-|me par-|
 d2 A2 c2 d2 | A3 B cd e2 | d2 c2 B4 | A2 c2 B2 A2- | A2 G2 A2 E2 | F4 E4 | z8 | B4 c2 G2 | A4 B4 | %34
w: faic- te- ment l'ay-|man _ _ _ de|corps et d'a-|||* me,||de corps et|d'a- me|
 z2 c2 c2 c2 | d2 c2 d4 | e4 f4- | f2 d2 g3 f | e2 d2 c2 BA | B4 A2 c2 | c2 c2 d2 c2 | d4 e4 | %42
w: de jour et|nuict, de jour|et nuict|_ peult a- voir|jo- ys- san _ _|_ ce, de|jour et nuict de-|jour et|
 f6 d2 | g3 f e2 d2 | c2 BA B4 | A8 |] %46
w: nuict peult|a- voir jo- ys-|san- * * *|ce.|
V:4
 G,8 | C,4 D,4 | E,8 | z2 A,2 A,2 D,2 | A,3 B, C2 D2- | DC C4 B,2 | C2 A,2 A,2 D,2 | A,3 B, C2 D2 | %8
w: O|doulx a-|mour|O gran- de|jo- ys- san- *||ce, O gran- de|jo ys- san- *|
 C2 B,2 A,4 | G,4 z2 A,2 | A,2 D,2 F,2 F,2 | E,4 A,,2 A,2 | G,2 F,2 E,2 E,2 | F,2 D,2 E,4 | %14
w: |ce, O|gran- de jo- ys-|san- ce quant|ung a- mant, quant|ung a- mant,|
 z2 A,4 G,2 | F,4 E,2 E,2 | F,2 D,2 E,2 E,2 | G,6 F,2 | D,2 E,2 F,4 | E,2 C,D, E,F,G,A, | %20
w: quant ung|a- mant, quant|ung a- mant de|sa tres|schie- re da-||
 B,2 A,4 G,2 | A,2 A,2 C4- | C2 B,2 G,2 A,2 | B,4 A,4- | A,4 D,4- | D,4 z4 | z2 A,2 A,2 E,2 | %27
w: |me, de sa|_ tres schie- re|da- *|* me|_|par- faic- te-|
 G,2 A,2 E,2 E,2 | F,2 C,2 D,4 | E,2 B,2 C2 B,2- | B,A, A,4 G,2 | A,2 E,2 F,4 | E,2 G,2 A,2 E,2 | %33
w: ment l'ay- mant de|corps et d'a-|me, de corps et|_ _ d'a- *||me, de corps et|
 F,4 E,4 | z2 A,2 A,2 A,2 | D,2 A,2 G,2 G,2 | C3 B, A,G,F,E, | D,2 G,2 G,F,E,D, | C,2 D,2 F,4 | %39
w: d'a- me|de jour et|nuict peult a- voir|jo- ys- san- * * *|* ce, [jo- * * *|* ys- san-|
 E,4 z2 A,2 | A,2 A,2 D,2 A,2 | G,2 G,2 C3 B, | A,G,F,E, D,2 G,2 | G,F,E,D, C,2 D,2 | F,4 E,4 | %45
w: ce] de|jour et nuict peult|a- voir jo- ys-|san- * * * * ce|[jo- * * * * ys-|san- *|
 A,,8 |] %46
w: ce.|

